tetrification/src/assets/images/pageNotFound/piece_purple.svg

<svg width="500" height="126" viewBox="0 0 500 126" fill="none" xmlns="http://www.w3.org/2000/svg">
<path d="M1 116.387V8.69591L8.64528 1H116.438L124.083 8.69591V116.387L116.438 124.083H8.64528L1 116.387Z" fill="#AF87F6" stroke="#532A9D" stroke-width="2"/>
<path d="M125.635 116.387V8.69591L133.28 1H241.072L248.718 8.69591V116.387L241.072 124.083H133.28L125.635 116.387Z" fill="#AF87F6" stroke="#532A9D" stroke-width="2"/>
<path d="M375.173 116.387V8.69591L382.818 1H490.61L498.256 8.69591V116.387L490.61 124.083H382.818L375.173 116.387Z" fill="#AF87F6" stroke="#532A9D" stroke-width="2"/>
<path d="M250.404 116.387V8.69591L258.05 1H365.842L373.487 8.69591V116.387L365.842 124.083H258.05L250.404 116.387Z" fill="#AF87F6" stroke="#532A9D" stroke-width="2"/>
</svg>

<svg xmlns="http://www.w3.org/2000/svg" width="500" height="126" fill="none"><path fill="#AF87F6" stroke="#532A9D" stroke-width="2" d="M1 116.387V8.696L8.645 1h107.793l7.645 7.696v107.691l-7.645 7.696H8.645L1 116.387ZM125.635 116.387V8.696L133.28 1h107.792l7.646 7.696v107.691l-7.646 7.696H133.28l-7.645-7.696ZM375.173 116.387V8.696L382.818 1H490.61l7.646 7.696v107.691l-7.646 7.696H382.818l-7.645-7.696ZM250.404 116.387V8.696L258.05 1h107.792l7.645 7.696v107.691l-7.645 7.696H258.05l-7.646-7.696Z"/></svg>
